packages/foundations/assets/icons/functional/images/layout/fullscreen_exit_16.svg

<svg width="16" height="16" viewBox="0 0 16 16" fill="none" xmlns="http://www.w3.org/2000/svg">
<g clip-path="url(#clip0_185_1340)">
<path fill-rule="evenodd" clip-rule="evenodd" d="M3.20746 8.80744L6.40002 8.8C6.84282 8.8 7.19258 9.17208 7.19258 9.61488L7.20002 12.8C7.20002 13.2427 6.84282 13.6 6.40002 13.6C5.95722 13.6 5.60002 13.2427 5.60002 12.8V10.4H3.20002C2.75722 10.4 2.40002 10.0428 2.40002 9.6C2.40002 9.1572 2.76466 8.80744 3.20746 8.80744ZM12.8 8.8C13.2427 8.8 13.6 9.1572 13.6 9.6C13.6 10.0428 13.2167 10.4 12.8 10.4H10.4V12.8C10.4 13.2427 10.0428 13.6 9.60002 13.6C9.15722 13.6 8.80002 13.2427 8.80002 12.8L8.80746 9.61488C8.80746 9.17208 9.15722 8.8 9.60002 8.8H12.8ZM12.8038 7.2H9.60002C9.15722 7.2 8.80002 6.8428 8.80002 6.4L8.80746 3.20744C8.80746 2.76464 9.14234 2.40744 9.58514 2.40744C10.0279 2.40744 10.4 2.78696 10.4 3.22976V5.6H12.7963C13.2131 5.6 13.6 5.9572 13.6 6.4C13.6 6.8428 13.2465 7.2 12.8038 7.2ZM3.20746 7.19256C2.76466 7.19256 2.40002 6.8428 2.40002 6.4C2.40002 5.9572 2.75722 5.6 3.20002 5.6H5.60002V3.22976C5.60002 2.78696 5.94234 2.4 6.38514 2.4C6.82794 2.4 7.19258 2.76464 7.19258 3.20744L7.20002 6.4C7.20002 6.8428 6.84282 7.2 6.40002 7.2L3.20746 7.19256Z" fill="#1A1C1F"/>
</g>
<defs>
<clipPath id="clip0_185_1340">
<rect width="16" height="16" fill="white"/>
</clipPath>
</defs>
</svg>

<svg xmlns="http://www.w3.org/2000/svg" width="16" height="16" fill="none"><g clip-path="url(#a)"><path fill="#1A1C1F" fill-rule="evenodd" d="M3.207 8.807 6.4 8.8c.443 0 .793.372.793.815L7.2 12.8a.799.799 0 1 1-1.6 0v-2.4H3.2a.8.8 0 0 1-.8-.8c0-.443.365-.793.807-.793M12.8 8.8c.443 0 .8.357.8.8s-.383.8-.8.8h-2.4v2.4a.799.799 0 1 1-1.6 0l.007-3.185c0-.443.35-.815.793-.815zm.004-1.6H9.6a.8.8 0 0 1-.8-.8l.007-3.193c0-.442.335-.8.778-.8a.83.83 0 0 1 .815.823V5.6h2.396a.82.82 0 0 1 .804.8c0 .443-.354.8-.796.8m-9.597-.007A.8.8 0 0 1 2.4 6.4c0-.443.357-.8.8-.8h2.4V3.23c0-.443.342-.83.785-.83s.808.365.808.807L7.2 6.4c0 .443-.357.8-.8.8z" clip-rule="evenodd"/></g><defs><clipPath id="a"><path fill="#fff" d="M0 0h16v16H0z"/></clipPath></defs></svg>
